Catalina-dark/actions/22/stroke-cap-butt.svg

<svg xmlns="http://www.w3.org/2000/svg" viewBox="0 0 22 22">
  <defs id="defs3051">
    <style type="text/css" id="current-color-scheme">
      .ColorScheme-Text {
        color:#f2f2f2
      }
      </style>
  </defs>
 <path 
     style="fill:currentColor;fill-opacity:1;stroke:none"      
	 class="ColorScheme-Text"
     d="M 8.8671875 3 L 8.8671875 4.0664062 L 6.7324219 4.0664062 L 5.6660156 4.0664062 L 5.6660156 5.1328125 L 5.6660156 19 L 6.7324219 19 L 9.9335938 19 L 9.9335938 17.933594 L 9.9335938 4.0664062 L 12.066406 4.0664062 L 12.066406 19 L 13.132812 19 L 16.333984 19 L 16.333984 17.933594 L 16.333984 4.0664062 L 13.132812 4.0664062 L 13.132812 3 L 8.8671875 3 z "
     />
</svg>

<svg width="22" height="22" viewBox="5.666 3 10.67 16" xmlns="http://www.w3.org/2000/svg">
<defs>
<style id="current-color-scheme" type="text/css">.ColorScheme-Text {
        color:#f2f2f2
      }</style>
</defs>
<path class="ColorScheme-Text" d="m8.8672 3v1.0664h-2.1348-1.0664v1.0664 13.867h1.0664 3.2012v-1.0664-13.867h2.1328v14.934h1.0664 3.2012v-1.0664-13.867h-3.2012v-1.0664h-4.2656z" fill="currentColor"/>
</svg>
